X:1
T: Lochleven Side
B: RSCDS 30-1
P: Lochleven Side
C: attrib. John Bowie
N: Arr. T. Traub 6-29-2011
M: 6/8
R: jig
K: A
|: E|"A"A3 "E"BAB|"A"cBA "D"d2 f|"A"edc "E"BAB|"A"cAE "E"E2 E|"A"A3 "E"BAB|"A"cBA "D"d2 f|"A"edc "E"BAB|"A"cAA A2 :|
f/g/|"A"agf edc|"A"cde "D"f2 a|"A"edc "E"BAB|"A"cAE "E"E2 f/g/|"A"agf edc|"A"cde "D"f2 a|"A"edc "E"BAB |"A"cAA A2 f/g/||
"A"afb a2 g|"D"fde f2 a|"A"edc "E"BAB|"A"cAE "E"E2 c/B/|"A"AEA "E"BAB|"A"cBA "D"d2 f|"A"edc "E"BAB|"A"cAA A2 |]
